images/PARTNERS/SVG/Talento-Desktop.svg

<svg width="161" height="179" viewBox="0 0 161 179" fill="none" xmlns="http://www.w3.org/2000/svg">
<g filter="url(#filter0_d_23_47)">
<path d="M145.74 70.5579L121.003 27.0851C117.493 20.9137 110.952 17.085 103.848 17.0365L84.4084 16.9037L78.8726 8.47785L73.2222 16.8273L53.7824 16.6945C46.679 16.646 40.0855 20.385 36.4918 26.5078L11.1631 69.6386C7.5694 75.7614 7.51771 83.3291 11.0274 89.5005L35.7645 132.973C39.2742 139.145 45.8161 142.973 52.9194 143.022L102.985 143.364C110.089 143.412 116.682 139.673 120.276 133.551L145.605 90.4198C149.198 84.297 149.25 76.7249 145.74 70.5579Z" fill="white"/>
</g>
<path d="M44 80.6515C44.4188 80.4217 44.8166 80.0655 45.2616 79.9853C47.1915 79.6397 49.1336 79.3619 51.0757 79.0947C51.4805 79.0395 51.6742 78.8542 51.84 78.5051C52.6846 76.7256 53.557 74.9587 54.4033 73.181C54.6389 72.6876 54.9355 72.2975 55.5148 72.2975C56.0942 72.2975 56.3908 72.6876 56.6264 73.1828C57.4744 74.9604 58.3469 76.7274 59.1914 78.5069C59.3572 78.856 59.5491 79.0323 59.9557 79.0876C61.9205 79.353 63.8766 79.6771 65.8379 79.9568C66.3788 80.0334 66.8168 80.2097 66.9861 80.7797C67.1483 81.3301 66.8447 81.7078 66.4853 82.0622C65.0754 83.4551 63.6585 84.8409 62.2782 86.2641C62.0758 86.4726 61.9345 86.8894 61.9763 87.1761C62.2625 89.0874 62.6063 90.9898 62.9308 92.8939C62.95 93.0026 62.9622 93.1148 62.9797 93.2234C63.0547 93.7115 63.0163 94.1639 62.5783 94.4756C62.1439 94.7856 61.7233 94.6787 61.2906 94.4436C59.5404 93.496 57.7798 92.5697 56.0348 91.6114C55.6736 91.4137 55.3944 91.3941 55.0193 91.6007C53.297 92.5537 51.5538 93.4657 49.8229 94.4026C49.3779 94.6431 48.9452 94.8123 48.474 94.4899C47.9732 94.1479 47.9767 93.6438 48.0657 93.1166C48.3903 91.1893 48.7009 89.2584 49.0498 87.3347C49.1371 86.852 49.0778 86.5171 48.7044 86.1608C47.4445 84.9621 46.2231 83.7223 44.9929 82.4933C44.6544 82.1548 44.3315 81.7968 44.0017 81.4477C44 81.1859 44 80.9187 44 80.6515ZM47.6103 81.7737C48.652 82.919 49.7007 84.1071 50.7913 85.2542C51.2293 85.7155 51.3828 86.1715 51.2624 86.8128C50.9658 88.3785 50.7302 89.9549 50.4493 91.6524C51.5922 91.0414 52.6217 90.4768 53.6635 89.9388C55.8568 88.8042 55.1571 88.7721 57.3889 89.9388C58.4254 90.4803 59.4514 91.0379 60.5926 91.647C60.3867 90.4216 60.1843 89.3332 60.0238 88.2395C59.6224 85.5053 59.2822 86.2873 61.2574 84.2745C62.0374 83.4801 62.7651 82.6322 63.5154 81.8093C63.4212 81.7897 63.2571 81.7487 63.0914 81.722C61.6919 81.5083 60.2942 81.2749 58.8895 81.0986C58.2718 81.0202 57.9159 80.7067 57.6594 80.1599C57.0591 78.8774 56.4309 77.6074 55.8115 76.3338C55.7312 76.1699 55.6283 76.0149 55.4939 75.7834C54.782 77.2511 54.091 78.6102 53.4611 79.9978C53.1574 80.6693 52.7561 81.0843 52.0023 81.1235C51.5259 81.1484 51.053 81.2589 50.5802 81.3301C49.5315 81.4833 48.4845 81.6418 47.6103 81.7737Z" fill="#2AB981"/>
<path d="M91.9928 93.4016C92.2719 91.729 92.5075 89.9175 92.8984 88.1398C93.1339 87.0728 92.9699 86.3354 92.1254 85.5998C90.8516 84.49 89.7034 83.2289 88.4942 82.0391C88.1295 81.6793 87.8485 81.2963 88.0248 80.7494C88.208 80.1812 88.6582 80.0352 89.1956 79.9586C91.1587 79.6825 93.1165 79.3583 95.0813 79.0911C95.4669 79.0377 95.6432 78.8631 95.7985 78.5372C96.6448 76.7577 97.512 74.9889 98.3583 73.2095C98.5904 72.7214 98.873 72.3117 99.4541 72.2993C100.068 72.285 100.368 72.7036 100.613 73.2166C101.461 74.9961 102.33 76.763 103.176 78.5443C103.333 78.8738 103.515 79.0341 103.898 79.0858C105.884 79.3547 107.865 79.6789 109.849 79.9639C110.367 80.0387 110.777 80.2222 110.948 80.7584C111.112 81.2749 110.866 81.6561 110.517 81.9999C109.091 83.4106 107.681 84.8356 106.242 86.2285C105.931 86.5296 105.856 86.8199 105.928 87.2278C106.266 89.1319 106.586 91.0379 106.91 92.9438C106.933 93.0756 106.987 93.2216 106.952 93.3392C106.84 93.7222 106.795 94.2548 106.535 94.4275C106.244 94.6199 105.673 94.6253 105.345 94.4614C103.548 93.5601 101.778 92.5964 100.018 91.6203C99.6216 91.4012 99.3232 91.4226 98.9428 91.631C97.1787 92.6 95.4041 93.553 93.6243 94.4899C92.7675 94.9388 91.9718 94.456 91.9928 93.4016ZM99.5065 75.762C99.3494 76.0523 99.2395 76.234 99.147 76.4246C98.538 77.6786 97.9203 78.9272 97.3305 80.1901C97.0845 80.7174 96.7372 81.0238 96.1457 81.0879C95.2802 81.1823 94.4217 81.3337 93.5597 81.4655C92.8443 81.5759 92.1289 81.6917 91.6019 81.7754C92.6401 82.9226 93.6871 84.1124 94.7724 85.2649C95.1877 85.7066 95.3989 86.1519 95.2348 86.7593C95.1598 87.0372 95.1301 87.3258 95.083 87.6108C94.8684 88.9182 94.6538 90.2238 94.4217 91.647C95.8787 90.8704 97.238 90.1775 98.5642 89.4223C99.1993 89.0589 99.7455 89.0126 100.391 89.4009C101.309 89.9531 102.272 90.4233 103.218 90.9274C103.628 91.1447 104.043 91.3567 104.558 91.6239C104.272 89.9103 104.031 88.3322 103.736 86.7647C103.619 86.1466 103.775 85.6959 104.211 85.2738C105.193 84.3279 106.146 83.3483 107.128 82.4024C107.292 82.2439 107.547 82.1833 107.76 82.0765C107.685 81.9785 107.612 81.8823 107.537 81.7843C106.163 81.5813 104.794 81.3319 103.415 81.193C102.455 81.0968 101.825 80.7388 101.431 79.7787C100.881 78.4427 100.187 77.1638 99.5065 75.762Z" fill="#2AB981"/>
<path d="M70.0065 98.7453C70.2857 97.0727 70.5213 95.2612 70.9122 93.4835C71.1477 92.4165 70.9855 91.6791 70.1392 90.9434C68.8636 89.8337 67.7172 88.5726 66.5079 87.3828C66.1433 87.023 65.8623 86.64 66.0386 86.0932C66.2218 85.5249 66.672 85.3771 67.2077 85.3023C69.1707 85.0262 71.1285 84.702 73.0933 84.4348C73.479 84.3814 73.6552 84.2068 73.8105 83.8809C74.6568 82.1014 75.524 80.3326 76.3703 78.5532C76.6024 78.0651 76.8851 77.6554 77.4662 77.6412C78.0804 77.6269 78.3805 78.0455 78.6248 78.5585C79.4728 80.338 80.3418 82.105 81.1881 83.8862C81.3451 84.2157 81.5266 84.376 81.9105 84.4277C83.8962 84.6967 85.8767 85.0208 87.8607 85.3058C88.379 85.3807 88.7891 85.5641 88.9601 86.0985C89.1241 86.6151 88.878 86.9962 88.5291 87.34C87.1034 88.7508 85.6935 90.1757 84.254 91.5687C83.9434 91.8697 83.8683 92.16 83.9399 92.5679C84.2784 94.4721 84.5977 96.378 84.9223 98.2839C84.945 98.4157 84.999 98.5618 84.9641 98.6793C84.8525 99.0623 84.8088 99.5949 84.5471 99.7677C84.2557 99.9601 83.6851 99.9654 83.3571 99.8015C81.5598 98.9002 79.7904 97.9366 78.0298 96.9605C77.6354 96.7414 77.3353 96.761 76.9549 96.9711C75.1908 97.9401 73.4162 98.8913 71.6363 99.83C70.7813 100.282 69.9856 99.8015 70.0065 98.7453ZM82.5736 96.9836C82.2874 95.2701 82.0396 93.6776 81.7482 92.0924C81.64 91.5045 81.7727 91.061 82.1914 90.6531C83.2192 89.6574 84.2278 88.6421 85.2416 87.6321C85.369 87.5057 85.4754 87.3578 85.5976 87.2118C85.4963 87.153 85.4615 87.1174 85.4231 87.1102C84.3883 86.9553 83.3518 86.8199 82.3206 86.6489C79.6683 86.2089 80.265 86.7112 79.0575 84.262C78.555 83.2414 78.0594 82.2172 77.501 81.0718C76.8415 82.4327 76.1819 83.6333 75.6741 84.8979C75.2414 85.9738 74.5818 86.4779 73.4353 86.5616C72.1005 86.6578 70.7778 86.9357 69.4482 87.1352C69.3871 87.2207 69.326 87.3062 69.2667 87.3917C69.4726 87.511 69.7134 87.5912 69.8809 87.7533C70.8616 88.7009 71.816 89.677 72.7984 90.6246C73.2382 91.0485 73.4144 91.517 73.2486 92.1226C73.1788 92.3773 73.1544 92.6463 73.1108 92.9099C72.8927 94.2316 72.6746 95.5551 72.4372 96.9961C73.9274 96.1981 75.3042 95.4909 76.653 94.7286C77.2515 94.3901 77.7645 94.3866 78.3648 94.725C79.7119 95.4838 81.0886 96.1927 82.5736 96.9836Z" fill="#2AB981"/>
<path d="M84.828 60.8976C85.0025 65.3418 82.0833 68.1187 79.1936 68.8241C74.8348 69.8875 70.4375 66.5904 70.1863 62.0198C70.0729 59.9339 70.2735 57.9318 71.5159 56.1631C73.3778 53.5126 76.6548 52.3744 79.6822 53.3398C82.6905 54.2999 84.7495 57.1 84.8263 60.3347C84.8315 60.5592 84.828 60.7818 84.828 60.8976ZM82.7341 61.0543C82.7341 60.8317 82.7393 60.609 82.7341 60.3864C82.6695 57.6985 80.7501 55.5307 78.1135 55.1674C75.634 54.8254 73.1335 56.4855 72.5001 59.0309C72.268 59.9589 72.2488 60.9742 72.2994 61.9396C72.4634 65.0781 75.4001 67.3742 78.4224 66.7953C81.1148 66.2787 82.7376 64.1216 82.7341 61.0543Z" fill="#2AB981"/>
<path d="M63.9917 78.6084C63.9917 77.2101 63.8382 75.8154 64.0249 74.4724C64.3791 71.9359 66.5428 70.1173 69.0608 70.1084C74.6865 70.0852 80.3121 70.0816 85.9378 70.1084C88.7768 70.1226 91.0383 72.4382 91.1028 75.3256C91.1273 76.4104 91.1063 77.4951 91.1063 78.6137C90.4049 78.6137 89.7592 78.6137 89.0141 78.6137C89.0141 77.5628 89.0264 76.5048 89.0107 75.4467C88.9862 73.8525 87.9445 72.5825 86.4247 72.2904C86.149 72.2369 85.861 72.2387 85.5784 72.2387C80.1917 72.2351 74.8069 72.2351 69.4202 72.2369C67.2565 72.2369 65.9845 73.5497 65.981 75.778C65.9792 76.7078 65.981 77.6394 65.981 78.6084C65.2935 78.6084 64.6461 78.6084 63.9917 78.6084Z" fill="#2AB981"/>
<path d="M53.6761 160.912V159.818H61.3125V160.912H58.1108V170H56.8778V160.912H53.6761ZM64.2644 170.179C63.7805 170.179 63.3413 170.088 62.9469 169.906C62.5525 169.72 62.2393 169.453 62.0073 169.105C61.7753 168.754 61.6593 168.33 61.6593 167.832C61.6593 167.395 61.7454 167.04 61.9178 166.768C62.0901 166.493 62.3205 166.278 62.6088 166.122C62.8972 165.966 63.2154 165.85 63.5634 165.774C63.9147 165.695 64.2677 165.632 64.6223 165.585C65.0864 165.526 65.4625 165.481 65.7509 165.451C66.0426 165.418 66.2547 165.363 66.3873 165.287C66.5231 165.211 66.5911 165.078 66.5911 164.889V164.849C66.5911 164.359 66.4569 163.978 66.1884 163.706C65.9232 163.434 65.5205 163.298 64.9803 163.298C64.4202 163.298 63.981 163.421 63.6628 163.666C63.3446 163.911 63.1209 164.173 62.9917 164.452L61.878 164.054C62.0769 163.59 62.342 163.229 62.6735 162.97C63.0082 162.708 63.3728 162.526 63.7672 162.423C64.165 162.317 64.556 162.264 64.9405 162.264C65.1858 162.264 65.4675 162.294 65.7857 162.354C66.1072 162.41 66.4171 162.528 66.7154 162.707C67.017 162.886 67.2672 163.156 67.4661 163.517C67.665 163.878 67.7644 164.362 67.7644 164.969V170H66.5911V168.966H66.5314C66.4519 169.132 66.3193 169.309 66.1337 169.498C65.9481 169.687 65.7012 169.848 65.3929 169.98C65.0847 170.113 64.7085 170.179 64.2644 170.179ZM64.4434 169.125C64.9074 169.125 65.2985 169.034 65.6167 168.852C65.9382 168.669 66.1801 168.434 66.3425 168.146C66.5082 167.857 66.5911 167.554 66.5911 167.236V166.162C66.5414 166.222 66.432 166.276 66.263 166.326C66.0972 166.372 65.905 166.414 65.6863 166.45C65.4708 166.483 65.2604 166.513 65.0549 166.54C64.8527 166.563 64.6886 166.583 64.5627 166.599C64.2578 166.639 63.9727 166.704 63.7076 166.793C63.4457 166.879 63.2336 167.01 63.0712 167.186C62.9121 167.358 62.8326 167.594 62.8326 167.892C62.8326 168.3 62.9834 168.608 63.285 168.817C63.5899 169.022 63.976 169.125 64.4434 169.125ZM71.0792 159.818V170H69.9059V159.818H71.0792ZM76.4299 170.159C75.6941 170.159 75.0594 169.997 74.5257 169.672C73.9954 169.344 73.5861 168.886 73.2978 168.3C73.0127 167.71 72.8702 167.024 72.8702 166.241C72.8702 165.459 73.0127 164.77 73.2978 164.173C73.5861 163.573 73.9872 163.106 74.5009 162.771C75.0179 162.433 75.6212 162.264 76.3105 162.264C76.7083 162.264 77.101 162.33 77.4888 162.463C77.8766 162.596 78.2296 162.811 78.5478 163.109C78.8659 163.404 79.1195 163.795 79.3084 164.283C79.4973 164.77 79.5918 165.37 79.5918 166.082V166.58H73.7054V165.565H78.3986C78.3986 165.134 78.3124 164.75 78.1401 164.412C77.9711 164.074 77.7291 163.807 77.4142 163.612C77.1027 163.416 76.7348 163.318 76.3105 163.318C75.8432 163.318 75.4389 163.434 75.0975 163.666C74.7594 163.895 74.4992 164.193 74.3169 164.561C74.1346 164.929 74.0435 165.323 74.0435 165.744V166.42C74.0435 166.997 74.1429 167.486 74.3418 167.887C74.544 168.285 74.824 168.588 75.182 168.797C75.54 169.002 75.9559 169.105 76.4299 169.105C76.7381 169.105 77.0165 169.062 77.2651 168.976C77.517 168.886 77.7341 168.754 77.9164 168.578C78.0987 168.399 78.2395 168.177 78.339 167.912L79.4725 168.23C79.3532 168.615 79.1526 168.953 78.8709 169.244C78.5892 169.533 78.2412 169.758 77.8269 169.92C77.4126 170.08 76.9469 170.159 76.4299 170.159ZM82.5499 165.406V170H81.3766V162.364H82.5101V163.557H82.6096C82.7885 163.169 83.0603 162.857 83.4249 162.622C83.7895 162.384 84.2601 162.264 84.8368 162.264C85.3539 162.264 85.8063 162.37 86.1941 162.582C86.5819 162.791 86.8835 163.109 87.0989 163.537C87.3143 163.961 87.4221 164.498 87.4221 165.148V170H86.2488V165.227C86.2488 164.627 86.093 164.16 85.7814 163.825C85.4699 163.487 85.0423 163.318 84.4988 163.318C84.1242 163.318 83.7895 163.399 83.4945 163.562C83.2028 163.724 82.9725 163.961 82.8034 164.273C82.6344 164.584 82.5499 164.962 82.5499 165.406ZM92.8871 162.364V163.358H88.9297V162.364H92.8871ZM90.0831 160.534H91.2564V167.812C91.2564 168.144 91.3045 168.393 91.4006 168.558C91.5 168.721 91.6259 168.83 91.7784 168.886C91.9342 168.939 92.0982 168.966 92.2706 168.966C92.3999 168.966 92.5059 168.959 92.5888 168.946C92.6716 168.929 92.7379 168.916 92.7876 168.906L93.0263 169.96C92.9467 169.99 92.8357 170.02 92.6932 170.05C92.5507 170.083 92.37 170.099 92.1513 170.099C91.8198 170.099 91.495 170.028 91.1768 169.886C90.862 169.743 90.6001 169.526 90.3913 169.234C90.1858 168.943 90.0831 168.575 90.0831 168.131V160.534ZM97.6722 170.159C96.9828 170.159 96.378 169.995 95.8576 169.667C95.3406 169.339 94.9362 168.88 94.6445 168.29C94.3562 167.7 94.212 167.01 94.212 166.222C94.212 165.426 94.3562 164.732 94.6445 164.138C94.9362 163.545 95.3406 163.085 95.8576 162.756C96.378 162.428 96.9828 162.264 97.6722 162.264C98.3616 162.264 98.9648 162.428 99.4819 162.756C100.002 163.085 100.407 163.545 100.695 164.138C100.987 164.732 101.132 165.426 101.132 166.222C101.132 167.01 100.987 167.7 100.695 168.29C100.407 168.88 100.002 169.339 99.4819 169.667C98.9648 169.995 98.3616 170.159 97.6722 170.159ZM97.6722 169.105C98.1959 169.105 98.6268 168.971 98.9648 168.702C99.3029 168.434 99.5531 168.081 99.7156 167.643C99.878 167.206 99.9592 166.732 99.9592 166.222C99.9592 165.711 99.878 165.236 99.7156 164.795C99.5531 164.354 99.3029 163.998 98.9648 163.726C98.6268 163.454 98.1959 163.318 97.6722 163.318C97.1486 163.318 96.7177 163.454 96.3796 163.726C96.0415 163.998 95.7913 164.354 95.6289 164.795C95.4665 165.236 95.3853 165.711 95.3853 166.222C95.3853 166.732 95.4665 167.206 95.6289 167.643C95.7913 168.081 96.0415 168.434 96.3796 168.702C96.7177 168.971 97.1486 169.105 97.6722 169.105Z" fill="#717171"/>
<defs>
<filter id="filter0_d_23_47" x="0.431011" y="0.477844" width="159.906" height="154.887" filterUnits="userSpaceOnUse" color-interpolation-filters="sRGB">
<feFlood flood-opacity="0" result="BackgroundImageFix"/>
<feColorMatrix in="SourceAlpha" type="matrix" values="0 0 0 0 0 0 0 0 0 0 0 0 0 0 0 0 0 0 127 0" result="hardAlpha"/>
<feOffset dx="2" dy="2"/>
<feGaussianBlur stdDeviation="5"/>
<feComposite in2="hardAlpha" operator="out"/>
<feColorMatrix type="matrix" values="0 0 0 0 0 0 0 0 0 0 0 0 0 0 0 0 0 0 0.1 0"/>
<feBlend mode="normal" in2="BackgroundImageFix" result="effect1_dropShadow_23_47"/>
<feBlend mode="normal" in="SourceGraphic" in2="effect1_dropShadow_23_47" result="shape"/>
</filter>
</defs>
</svg>

<svg width="161" height="179" fill="none" xmlns="http://www.w3.org/2000/svg"><g filter="url(#a)"><path d="m145.74 70.558-24.737-43.473a19.889 19.889 0 0 0-17.155-10.049l-19.44-.132-5.535-8.426-5.65 8.35-19.44-.133a19.89 19.89 0 0 0-17.291 9.813l-25.329 43.13a19.844 19.844 0 0 0-.136 19.862l24.737 43.473a19.89 19.89 0 0 0 17.155 10.049l50.066.342a19.892 19.892 0 0 0 17.291-9.813l25.329-43.131a19.845 19.845 0 0 0 .135-19.862Z" fill="#fff"/></g><path d="M44 80.651c.419-.23.817-.585 1.262-.666 1.93-.345 3.872-.623 5.814-.89.404-.055.598-.24.764-.59.845-1.78 1.717-3.546 2.563-5.324.236-.493.532-.883 1.112-.883.58 0 .876.39 1.111.885.848 1.777 1.72 3.544 2.565 5.324.166.349.358.525.765.58 1.964.266 3.92.59 5.882.87.54.076.979.253 1.148.823.162.55-.141.928-.5 1.282-1.41 1.393-2.828 2.779-4.208 4.202-.202.209-.343.625-.302.912.287 1.911.63 3.814.955 5.718.019.109.031.22.049.33.075.487.036.94-.402 1.252-.434.31-.855.203-1.287-.032-1.75-.948-3.511-1.874-5.256-2.833-.361-.197-.64-.217-1.016-.01-1.722.953-3.465 1.865-5.196 2.802-.445.24-.878.41-1.349.087-.5-.342-.497-.846-.408-1.373.324-1.928.635-3.859.984-5.782.087-.483.028-.818-.346-1.174-1.26-1.199-2.48-2.439-3.711-3.668-.339-.338-.662-.696-.991-1.045-.002-.262-.002-.53-.002-.796Zm3.61 1.123c1.042 1.145 2.09 2.333 3.181 3.48.438.462.592.917.471 1.559-.296 1.566-.532 3.142-.813 4.84 1.143-.612 2.173-1.176 3.215-1.714 2.193-1.135 1.493-1.167 3.725 0 1.036.541 2.062 1.099 3.204 1.708-.206-1.225-.409-2.314-.57-3.407-.4-2.735-.74-1.953 1.234-3.965.78-.795 1.508-1.643 2.258-2.466-.094-.02-.258-.06-.424-.087-1.4-.214-2.797-.447-4.202-.623-.617-.079-.973-.392-1.23-.94-.6-1.282-1.228-2.552-1.847-3.825-.08-.164-.184-.32-.318-.55-.712 1.467-1.403 2.826-2.033 4.214-.304.671-.705 1.086-1.459 1.126-.476.024-.949.135-1.422.206-1.048.153-2.096.312-2.97.444ZM91.993 93.402c.279-1.673.514-3.484.905-5.262.236-1.067.072-1.805-.773-2.54-1.273-1.11-2.422-2.371-3.63-3.56-.366-.36-.647-.744-.47-1.29.183-.569.633-.715 1.17-.791 1.964-.276 3.922-.6 5.886-.868.386-.053.562-.228.718-.554.846-1.78 1.713-3.548 2.56-5.328.231-.488.514-.897 1.095-.91.614-.014.914.405 1.159.918.848 1.78 1.717 3.546 2.563 5.327.157.33.339.49.722.542 1.986.269 3.967.593 5.951.878.518.075.928.258 1.099.794.164.517-.082.898-.431 1.242-1.426 1.41-2.836 2.836-4.275 4.228-.311.302-.386.592-.314 1 .338 1.904.658 3.81.982 5.716.023.132.077.278.042.395-.112.383-.157.916-.417 1.088-.291.193-.862.198-1.19.034a145.674 145.674 0 0 1-5.327-2.84c-.396-.22-.695-.198-1.075.01a340.363 340.363 0 0 1-5.319 2.859c-.856.449-1.652-.034-1.631-1.088Zm7.514-17.64c-.158.29-.267.472-.36.663-.609 1.254-1.227 2.502-1.817 3.765-.245.527-.593.834-1.184.898-.866.094-1.724.246-2.586.378-.716.11-1.431.226-1.958.31 1.038 1.147 2.085 2.336 3.17 3.489.416.442.627.887.463 1.494-.075.278-.105.567-.152.852-.215 1.307-.43 2.613-.661 4.036 1.457-.777 2.816-1.47 4.142-2.225.635-.363 1.182-.41 1.827-.021.918.552 1.881 1.022 2.827 1.526.41.218.825.43 1.34.697-.286-1.714-.527-3.292-.822-4.86-.117-.617.039-1.068.475-1.49.982-.946 1.935-1.926 2.917-2.872.164-.158.419-.219.632-.326l-.223-.292c-1.374-.203-2.743-.452-4.122-.591-.96-.096-1.59-.454-1.984-1.414-.55-1.336-1.244-2.615-1.924-4.017ZM70.007 98.745c.279-1.672.514-3.484.905-5.261.236-1.067.073-1.805-.773-2.54-1.275-1.11-2.422-2.371-3.631-3.561-.365-.36-.646-.743-.47-1.29.184-.568.634-.716 1.17-.79 1.963-.277 3.92-.601 5.885-.868.386-.054.562-.228.718-.554.846-1.78 1.713-3.548 2.56-5.328.231-.488.514-.898 1.095-.912.614-.014.915.404 1.159.917.848 1.78 1.717 3.547 2.563 5.328.157.33.339.49.722.542 1.986.269 3.967.593 5.95.878.519.075.93.258 1.1.793.164.516-.082.897-.43 1.241-1.427 1.41-2.837 2.836-4.276 4.229-.31.3-.386.591-.314.999.338 1.904.658 3.81.982 5.716.023.132.077.278.042.395-.111.383-.155.916-.417 1.089-.291.192-.862.197-1.19.034a145.93 145.93 0 0 1-5.327-2.842c-.395-.219-.695-.199-1.075.011-1.764.97-3.539 1.92-5.319 2.859-.855.452-1.65-.028-1.63-1.085Zm12.567-1.761c-.287-1.714-.534-3.306-.826-4.892-.108-.588.025-1.031.443-1.439 1.028-.996 2.037-2.01 3.05-3.02.128-.127.234-.275.357-.421-.102-.059-.136-.095-.175-.102-1.035-.155-2.071-.29-3.102-.461-2.653-.44-2.056.062-3.263-2.387-.503-1.02-.999-2.045-1.557-3.19-.66 1.36-1.32 2.561-1.827 3.826-.433 1.076-1.092 1.58-2.239 1.664-1.335.096-2.657.374-3.987.573-.06.086-.122.171-.181.257.206.119.446.2.614.361.98.948 1.935 1.924 2.917 2.872.44.424.616.892.45 1.498-.07.254-.094.523-.137.787l-.674 4.086c1.49-.798 2.867-1.505 4.216-2.267.598-.339 1.111-.342 1.712-.004 1.347.759 2.724 1.468 4.209 2.259ZM84.828 60.898c.174 4.444-2.745 7.22-5.634 7.926-4.36 1.064-8.757-2.234-9.008-6.804-.113-2.086.087-4.088 1.33-5.857 1.862-2.65 5.139-3.789 8.166-2.823 3.008.96 5.067 3.76 5.144 6.995.006.224.002.447.002.563Zm-2.094.156c0-.222.005-.445 0-.668-.064-2.688-1.984-4.855-4.62-5.219-2.48-.342-4.98 1.319-5.614 3.864-.232.928-.251 1.943-.2 2.909.163 3.138 3.1 5.434 6.122 4.855 2.693-.516 4.316-2.673 4.312-5.74Z" fill="#2AB981"/><path d="M63.992 78.608c0-1.398-.154-2.793.033-4.136.354-2.536 2.518-4.355 5.036-4.364 5.625-.023 11.251-.026 16.877 0 2.839.015 5.1 2.33 5.165 5.218.024 1.084.003 2.17.003 3.288h-2.092c0-1.051.012-2.11-.003-3.167-.025-1.594-1.066-2.865-2.586-3.157-.276-.053-.564-.051-.847-.051-5.386-.004-10.771-.004-16.158-.002-2.163 0-3.436 1.313-3.439 3.541-.002.93 0 1.861 0 2.83h-1.99Z" fill="#2AB981"/><path d="M53.676 160.912v-1.094h7.636v1.094h-3.201V170h-1.233v-9.088h-3.202Zm10.588 9.267c-.483 0-.923-.091-1.317-.273a2.265 2.265 0 0 1-.94-.801c-.232-.351-.348-.775-.348-1.273 0-.437.086-.792.259-1.064.172-.275.403-.49.69-.646.29-.156.607-.272.955-.348.352-.079.705-.142 1.06-.189.463-.059.84-.104 1.128-.134.292-.033.504-.088.636-.164.136-.076.204-.209.204-.398v-.04c0-.49-.134-.871-.403-1.143-.265-.272-.668-.408-1.208-.408-.56 0-.999.123-1.317.368-.318.245-.542.507-.671.786l-1.114-.398c.199-.464.464-.825.795-1.084.335-.262.7-.444 1.094-.547a4.544 4.544 0 0 1 1.173-.159c.246 0 .528.03.846.09.321.056.631.174.93.353.301.179.551.449.75.81.199.361.298.845.298 1.452V170h-1.173v-1.034h-.06c-.08.166-.212.343-.397.532-.186.189-.433.35-.741.482-.308.133-.684.199-1.129.199Zm.18-1.054c.463 0 .855-.091 1.173-.273.321-.183.563-.418.725-.706.166-.289.25-.592.25-.91v-1.074c-.05.06-.16.114-.329.164a5.532 5.532 0 0 1-.577.124c-.215.033-.426.063-.631.09-.202.023-.366.043-.492.059-.305.04-.59.105-.855.194a1.47 1.47 0 0 0-.637.393c-.159.172-.238.408-.238.706 0 .408.15.716.452.925.305.205.691.308 1.158.308Zm6.635-9.307V170h-1.173v-10.182h1.173Zm5.35 10.341c-.735 0-1.37-.162-1.903-.487a3.272 3.272 0 0 1-1.228-1.372c-.285-.59-.428-1.276-.428-2.059 0-.782.143-1.471.428-2.068.288-.6.69-1.067 1.203-1.402.517-.338 1.12-.507 1.81-.507.397 0 .79.066 1.178.199.388.133.74.348 1.059.646.318.295.572.686.76 1.174.19.487.284 1.087.284 1.799v.498h-5.887v-1.015H78.4c0-.431-.087-.815-.259-1.153a1.944 1.944 0 0 0-.726-.8c-.311-.196-.68-.294-1.103-.294-.468 0-.872.116-1.214.348a2.29 2.29 0 0 0-.78.895 2.628 2.628 0 0 0-.273 1.183v.676c0 .577.099 1.066.298 1.467.202.398.482.701.84.91.358.205.774.308 1.248.308.308 0 .586-.043.835-.129a1.79 1.79 0 0 0 .651-.398c.183-.179.324-.401.423-.666l1.133.318c-.119.385-.32.723-.601 1.014-.282.289-.63.514-1.044.676-.414.16-.88.239-1.397.239Zm6.12-4.753V170h-1.172v-7.636h1.133v1.193h.1c.178-.388.45-.7.815-.935.365-.238.835-.358 1.412-.358.517 0 .97.106 1.357.318.388.209.69.527.905.955.215.424.323.961.323 1.611V170H86.25v-4.773c0-.6-.156-1.067-.468-1.402-.311-.338-.739-.507-1.282-.507-.375 0-.71.081-1.004.244a1.738 1.738 0 0 0-.692.711c-.169.311-.253.689-.253 1.133Zm10.338-3.042v.994H88.93v-.994h3.957Zm-2.804-1.83h1.173v7.278c0 .332.049.581.145.746.099.163.225.272.377.328.156.053.32.08.493.08.129 0 .235-.007.318-.02l.199-.04.238 1.054c-.08.03-.19.06-.333.09a2.467 2.467 0 0 1-.542.049 2.37 2.37 0 0 1-.974-.213 1.939 1.939 0 0 1-.786-.652c-.205-.291-.308-.659-.308-1.103v-7.597Zm7.59 9.625c-.69 0-1.295-.164-1.815-.492a3.343 3.343 0 0 1-1.214-1.377c-.288-.59-.432-1.28-.432-2.068 0-.796.144-1.49.432-2.084a3.345 3.345 0 0 1 1.214-1.382c.52-.328 1.125-.492 1.814-.492.69 0 1.293.164 1.81.492.52.329.925.789 1.213 1.382.292.594.437 1.288.437 2.084 0 .788-.145 1.478-.437 2.068a3.296 3.296 0 0 1-1.213 1.377c-.517.328-1.12.492-1.81.492Zm0-1.054c.523 0 .954-.134 1.292-.403a2.37 2.37 0 0 0 .75-1.059 4.05 4.05 0 0 0 .244-1.421c0-.511-.081-.986-.243-1.427a2.406 2.406 0 0 0-.751-1.069c-.338-.272-.77-.408-1.293-.408-.523 0-.954.136-1.292.408a2.405 2.405 0 0 0-.751 1.069 4.095 4.095 0 0 0-.244 1.427c0 .51.081.984.244 1.421.162.438.412.791.75 1.059.339.269.77.403 1.293.403Z" fill="#717171"/><defs><filter id="a" x=".431" y=".478" width="159.906" height="154.887" filterUnits="userSpaceOnUse" color-interpolation-filters="sRGB"><feFlood flood-opacity="0" result="BackgroundImageFix"/><feColorMatrix in="SourceAlpha" values="0 0 0 0 0 0 0 0 0 0 0 0 0 0 0 0 0 0 127 0" result="hardAlpha"/><feOffset dx="2" dy="2"/><feGaussianBlur stdDeviation="5"/><feComposite in2="hardAlpha" operator="out"/><feColorMatrix values="0 0 0 0 0 0 0 0 0 0 0 0 0 0 0 0 0 0 0.1 0"/><feBlend in2="BackgroundImageFix" result="effect1_dropShadow_23_47"/><feBlend in="SourceGraphic" in2="effect1_dropShadow_23_47" result="shape"/></filter></defs></svg>
